app/front_assets/images/pages/statistics/school.svg

<svg height="43.463" viewBox="0 0 53.122 43.463" width="53.122" xmlns="http://www.w3.org/2000/svg"><g fill="#403156" transform="translate(-4.999 -13.182)"><path d="m46.531 47.306a5 5 0 1 0 -5-5 5 5 0 0 0 5 5zm0-8.567a3.57 3.57 0 1 1 -3.57 3.569 3.574 3.574 0 0 1 3.57-3.569z" transform="translate(-14.97 -9.887)"/><path d="m50.359 45.853a.571.571 0 1 0 .683-.915l-1.394-1.038v-2.14a.571.571 0 0 0 -1.143 0v2.423a.57.57 0 0 0 .23.457z" transform="translate(-17.827 -11.476)"/><path d="m75.8 67.463h-2.905a.182.182 0 0 0 -.182.182v2.908a.181.181 0 0 0 .182.181h2.905a.181.181 0 0 0 .182-.181v-2.908a.182.182 0 0 0 -.182-.182zm-.73 2.357h-1.443v-1.443h1.443z" transform="translate(-27.746 -22.242)"/><path d="m83.5 67.463h-2.909a.182.182 0 0 0 -.182.182v2.908a.181.181 0 0 0 .182.181h2.909a.181.181 0 0 0 .182-.181v-2.908a.182.182 0 0 0 -.182-.182zm-.732 2.357h-1.445v-1.443h1.443z" transform="translate(-30.899 -22.242)"/><path d="m75.8 75.16h-2.905a.182.182 0 0 0 -.182.182v2.908a.182.182 0 0 0 .182.182h2.905a.182.182 0 0 0 .182-.182v-2.908a.182.182 0 0 0 -.182-.182zm-.732 2.357h-1.441v-1.443h1.443z" transform="translate(-27.746 -25.396)"/><path d="m83.5 75.16h-2.909a.182.182 0 0 0 -.182.182v2.908a.182.182 0 0 0 .182.182h2.909a.182.182 0 0 0 .182-.182v-2.908a.182.182 0 0 0 -.182-.182zm-.732 2.357h-1.445v-1.443h1.443z" transform="translate(-30.899 -25.396)"/><path d="m21.927 70.734h2.908a.181.181 0 0 0 .182-.181v-2.908a.182.182 0 0 0 -.182-.182h-2.908a.182.182 0 0 0 -.182.182v2.908a.181.181 0 0 0 .182.181zm.732-2.357h1.441v1.443h-1.441z" transform="translate(-6.862 -22.242)"/><path d="m14.229 70.734h2.908a.182.182 0 0 0 .182-.181v-2.908a.182.182 0 0 0 -.182-.182h-2.908a.182.182 0 0 0 -.182.182v2.908a.182.182 0 0 0 .182.181zm.733-2.357h1.438v1.443h-1.439z" transform="translate(-3.707 -22.242)"/><path d="m21.927 78.432h2.908a.182.182 0 0 0 .182-.182v-2.907a.182.182 0 0 0 -.182-.182h-2.908a.182.182 0 0 0 -.182.182v2.907a.182.182 0 0 0 .182.182zm.732-2.357h1.441v1.443h-1.441z" transform="translate(-6.862 -25.396)"/><path d="m14.229 78.432h2.908a.182.182 0 0 0 .182-.182v-2.907a.182.182 0 0 0 -.182-.182h-2.908a.182.182 0 0 0 -.182.182v2.907a.182.182 0 0 0 .182.182zm.733-2.357h1.438v1.443h-1.439z" transform="translate(-3.707 -25.396)"/><path d="m5.857 54.931a.857.857 0 0 0 0 1.714h51.407a.857.857 0 0 0 0-1.714h-.857v-11.241h.324a1.283 1.283 0 0 0 1.11-2.09l-3.468-5.126a1.628 1.628 0 0 0 -1.273-.674h-10.045v-4.458l.407.291a.857.857 0 0 0 1-1.393l-12.33-8.822v-2.54a2.56 2.56 0 0 1 .775-.108 10.316 10.316 0 0 1 1.865.254 12.907 12.907 0 0 0 2.477.313 5.509 5.509 0 0 0 1.872-.305l.38-.135v-5.658l-.762.27a4.39 4.39 0 0 1 -1.49.24 12.024 12.024 0 0 1 -2.259-.292 11.113 11.113 0 0 0 -2.082-.274 3.4 3.4 0 0 0 -1.608.359l-.306.16v.658 7.058l-12.332 8.822a.857.857 0 1 0 1 1.393l.407-.291v4.458h-10.044a1.63 1.63 0 0 0 -1.277.678l-3.467 5.122a1.282 1.282 0 0 0 1.109 2.09h.324v11.242h-.857zm26.278-40.5a6.111 6.111 0 0 1 2.637.15 12.861 12.861 0 0 0 2.477.313 5.933 5.933 0 0 0 1.11-.1v3.277a8.389 8.389 0 0 1 -3.369-.171 11.113 11.113 0 0 0 -2.082-.274 4.061 4.061 0 0 0 -.773.07v-3.27zm2.875 40.5h-7.037l.069-6.58a3.518 3.518 0 0 1 7.037-.009zm8.045-17.421h9.95l3.02 4.466h-12.97zm0 6.179h11.638v11.242h-11.638zm-21.275-13.573 9.781-7 9.78 7v24.815h-4.617l.069-6.58a5.232 5.232 0 0 0 -10.464-.009l-.069 6.59h-4.48zm-1.714 24.815h-11.638v-11.241h11.638zm-9.95-17.421h9.95v4.466h-12.966z"/></g></svg>

<svg xmlns="http://www.w3.org/2000/svg" width="53.122" height="43.463" viewBox="0 0 53.122 43.463"><defs><style>.a{fill:#403156;}</style></defs><g transform="translate(-4.999 -13.182)"><path class="a" d="M46.531,47.306a5,5,0,1,0-5-5A5,5,0,0,0,46.531,47.306Zm0-8.567a3.57,3.57,0,1,1-3.57,3.569A3.574,3.574,0,0,1,46.531,38.739Z" transform="translate(-14.97 -9.887)"/><path class="a" d="M50.359,45.853a.571.571,0,1,0,.683-.915L49.648,43.9V41.76a.571.571,0,0,0-1.143,0v2.423a.57.57,0,0,0,.23.457Z" transform="translate(-17.827 -11.476)"/><path class="a" d="M75.8,67.463H72.895a.182.182,0,0,0-.182.182v2.908a.181.181,0,0,0,.182.181H75.8a.181.181,0,0,0,.182-.181V67.645A.182.182,0,0,0,75.8,67.463ZM75.07,69.82H73.627V68.377H75.07Z" transform="translate(-27.746 -22.242)"/><path class="a" d="M83.5,67.463H80.591a.182.182,0,0,0-.182.182v2.908a.181.181,0,0,0,.182.181H83.5a.181.181,0,0,0,.182-.181V67.645A.182.182,0,0,0,83.5,67.463Zm-.732,2.357H81.323V68.377h1.443Z" transform="translate(-30.899 -22.242)"/><path class="a" d="M75.8,75.16H72.895a.182.182,0,0,0-.182.182v2.908a.182.182,0,0,0,.182.182H75.8a.182.182,0,0,0,.182-.182V75.342A.182.182,0,0,0,75.8,75.16Zm-.732,2.357H73.627V76.074H75.07Z" transform="translate(-27.746 -25.396)"/><path class="a" d="M83.5,75.16H80.591a.182.182,0,0,0-.182.182v2.908a.182.182,0,0,0,.182.182H83.5a.182.182,0,0,0,.182-.182V75.342A.182.182,0,0,0,83.5,75.16Zm-.732,2.357H81.323V76.074h1.443Z" transform="translate(-30.899 -25.396)"/><path class="a" d="M21.927,70.734h2.908a.181.181,0,0,0,.182-.181V67.645a.182.182,0,0,0-.182-.182H21.927a.182.182,0,0,0-.182.182v2.908A.181.181,0,0,0,21.927,70.734Zm.732-2.357H24.1V69.82H22.659Z" transform="translate(-6.862 -22.242)"/><path class="a" d="M14.229,70.734h2.908a.182.182,0,0,0,.182-.181V67.645a.182.182,0,0,0-.182-.182H14.229a.182.182,0,0,0-.182.182v2.908A.182.182,0,0,0,14.229,70.734Zm.733-2.357H16.4V69.82H14.961Z" transform="translate(-3.707 -22.242)"/><path class="a" d="M21.927,78.432h2.908a.182.182,0,0,0,.182-.182V75.343a.182.182,0,0,0-.182-.182H21.927a.182.182,0,0,0-.182.182V78.25A.182.182,0,0,0,21.927,78.432Zm.732-2.357H24.1v1.443H22.659Z" transform="translate(-6.862 -25.396)"/><path class="a" d="M14.229,78.432h2.908a.182.182,0,0,0,.182-.182V75.343a.182.182,0,0,0-.182-.182H14.229a.182.182,0,0,0-.182.182V78.25A.182.182,0,0,0,14.229,78.432Zm.733-2.357H16.4v1.443H14.961Z" transform="translate(-3.707 -25.396)"/><path class="a" d="M5.857,54.931a.857.857,0,0,0,0,1.714H57.264a.857.857,0,0,0,0-1.714h-.857V43.69h.324a1.283,1.283,0,0,0,1.11-2.09l-3.468-5.126A1.628,1.628,0,0,0,53.1,35.8H43.055V31.342l.407.291a.857.857,0,0,0,1-1.393L32.132,21.418V18.878a2.56,2.56,0,0,1,.775-.108,10.316,10.316,0,0,1,1.865.254,12.907,12.907,0,0,0,2.477.313,5.509,5.509,0,0,0,1.872-.305l.38-.135V13.239l-.762.27a4.39,4.39,0,0,1-1.49.24,12.024,12.024,0,0,1-2.259-.292,11.113,11.113,0,0,0-2.082-.274,3.4,3.4,0,0,0-1.608.359l-.306.16v.658h0v7.058L18.662,30.24a.857.857,0,1,0,1,1.393l.407-.291V35.8H10.025a1.63,1.63,0,0,0-1.277.678L5.281,41.6A1.282,1.282,0,0,0,6.39,43.69h.324V54.932H5.857Zm26.278-40.5a6.111,6.111,0,0,1,2.637.15,12.861,12.861,0,0,0,2.477.313,5.933,5.933,0,0,0,1.11-.1v3.277A8.389,8.389,0,0,1,34.99,17.9a11.113,11.113,0,0,0-2.082-.274,4.061,4.061,0,0,0-.773.07v-3.27Zm2.875,40.5H27.973l.069-6.58a3.518,3.518,0,0,1,7.037-.009ZM43.055,37.51h9.95l3.02,4.466H43.055Zm0,6.179H54.693V54.931H43.055ZM21.78,30.116l9.781-7,9.78,7V54.931H36.724l.069-6.58a5.232,5.232,0,0,0-10.464-.009l-.069,6.59H21.78V30.116ZM20.066,54.931H8.428V43.69H20.066ZM10.116,37.51h9.95v4.466H7.1Z"/></g></svg>
